X:1579
T:Wicklow Hornpipe
R:hornpipe
N:"Collected by Ennis"
B:O'Neill's 1579
Z:Transcribed by Michael Hogan
M:C|
L:1/8
K:D
FG|ABAF DEFG|AGFD c2 3ABc|defd cAGF|DG A3GFG DG Gz|
ABAF DEFG|AGFD c2 3ABc|defd cAGF|F2 D2 D2 :|
|: z2|f gfd cAGF|D2 g2 g2 af|d3e fdec|Addc Ad d z|
efec ABcA|dcAB c2 3ABc|defd cAAG|F2 D2 D2 :||
